(.../EAGLE-7.2.0/ulp/pcb-gcode.ulp)
(Copyright 2005 - 2012 by John Johnson)
(See readme.txt for licensing terms.)
(This file generated from the board:)
(.../eagle/hal9k_post/hal9kpost.brd)
(Current profile is .../pcb-gcode-3.6.2.4/profiles/emc.pp  )
(This file generated 20-11-2015 15:57:55)
(Settings from pcb-machine.h)
(spindle on time = 3.0000)
(spindle speed = 15000.0000)
(milling depth = -0.3000)
(tool change at 0.0000 0.0000 5.0000 )
(feed rate xy = F127.00 )
(feed rate z  = F127.00 )
(Z Axis Settings)
(  High     Up        Down     Drill)
(5.0000 	2.0000 	0.0000 	-1.6000 )
(Settings from pcb-defaults.h)
(isolate min = 0.0254)
(isolate max = 0.5080)
(isolate step = 0.1270)
(Generated bottom outlines, bottom drill, )
(Unit of measure: mm)
(Metric Mode)
G21
(Absolute Coordinates)
G90
S15000
G00 Z5.0000 
G00 X0.0000 Y0.0000 
M03
G04 P3.000000
G00 Z2.0000 
G01 Z-0.4000 F127.00 
G01 X-23.0000 Y0.0000 F127.00 
G01 X-23.0000 Y25.0000 
G01 X0.0000 Y25.0000 
G01 X0.0000 Y0.0000 
G01 Z-0.8000 F127.00 
G01 X-23.0000 Y0.0000 F127.00 
G01 X-23.0000 Y25.0000 
G01 X0.0000 Y25.0000 
G01 X0.0000 Y0.0000 
G01 Z-1.2000 F127.00 
G01 X-23.0000 Y0.0000 F127.00 
G01 X-23.0000 Y25.0000 
G01 X0.0000 Y25.0000 
G01 X0.0000 Y0.0000 
G01 Z-1.6000 F127.00 
G01 X-23.0000 Y0.0000 F127.00 
G01 X-23.0000 Y25.0000 
G01 X0.0000 Y25.0000 
G01 X0.0000 Y0.0000 
G00 Z5.0000 
M05
M02
