(.../EAGLE-7.2.0/ulp/pcb-gcode.ulp)
(Copyright 2005 - 2012 by John Johnson)
(See readme.txt for licensing terms.)
(This file generated from the board:)
(.../eagle/hal9k_post/hal9kpost.brd)
(Current profile is .../pcb-gcode-3.6.2.4/profiles/emc.pp  )
(This file generated 20-11-2015 15:57:36)
(Settings from pcb-machine.h)
(spindle on time = 3.0000)
(  Tool Size)
(0.2540 )
(spindle speed = 30000.0000)
(tool change at 0.0000 0.0000 5.0000 )
(feed rate xy = F508.00 )
(feed rate z  = F254.00 )
(Z Axis Settings)
(  High     Up        Down     Drill)
(5.0000 	2.0000 	0.0000 	-1.6000 )
(Settings from pcb-defaults.h)
(isolate min = 0.0254)
(isolate max = 0.5080)
(isolate step = 0.1270)
(Generated bottom outlines, bottom drill, )
(Unit of measure: mm)
(Metric Mode)
G21
(Absolute Coordinates)
G90
S30000
G00 Z5.0000 
G00 X0.0000 Y0.0000 
M03
G04 P3.000000
G00 Z2.0000 
G00 X-1.6341 Y0.7193 
G01 Z0.0000 F254.00 
G01 X-1.7193 Y0.6341 F508.00 
G01 X-1.8235 Y0.5740 
G01 X-1.9398 Y0.5428 
G01 X-12.0602 Y0.5428 
G01 X-12.1765 Y0.5740 
G01 X-12.2807 Y0.6341 
G01 X-12.3659 Y0.7193 
G01 X-12.4260 Y0.8235 
G01 X-12.4572 Y0.9398 
G01 X-12.4572 Y2.0828 
G01 X-16.7644 Y2.0828 
G01 X-17.3486 Y1.4986 
G01 X-18.2114 Y1.4986 
G01 X-18.7956 Y2.0828 
G01 X-20.3802 Y2.0828 
G01 X-20.4965 Y2.1140 
G01 X-20.6007 Y2.1741 
G01 X-20.6858 Y2.2593 
G01 X-20.7460 Y2.3635 
G01 X-20.7772 Y2.4798 
G01 X-20.7772 Y16.7586 
G01 X-20.9057 Y16.8241 
G01 X-21.0481 Y16.9275 
G01 X-21.1725 Y17.0519 
G01 X-21.2759 Y17.1943 
G01 X-21.3557 Y17.3510 
G01 X-21.4101 Y17.5183 
G01 X-21.4376 Y17.6920 
G01 X-21.4376 Y17.8680 
G01 X-21.4101 Y18.0417 
G01 X-21.3557 Y18.2090 
G01 X-21.2759 Y18.3657 
G01 X-21.1725 Y18.5081 
G01 X-21.0481 Y18.6325 
G01 X-20.9057 Y18.7359 
G01 X-20.7772 Y18.8014 
G01 X-20.7772 Y20.0338 
G01 X-20.9029 Y20.1177 
G01 X-21.0303 Y20.2451 
G01 X-21.1303 Y20.3949 
G01 X-21.1993 Y20.5613 
G01 X-21.2344 Y20.7379 
G01 X-21.2344 Y22.4421 
G01 X-21.1993 Y22.6187 
G01 X-21.1303 Y22.7851 
G01 X-21.0303 Y22.9349 
G01 X-20.9029 Y23.0623 
G01 X-20.7531 Y23.1623 
G01 X-20.5867 Y23.2313 
G01 X-20.4101 Y23.2664 
G01 X-20.2299 Y23.2664 
G01 X-20.0533 Y23.2313 
G01 X-19.8869 Y23.1623 
G01 X-19.7371 Y23.0623 
G01 X-19.6097 Y22.9349 
G01 X-19.5097 Y22.7851 
G01 X-19.4407 Y22.6187 
G01 X-19.4056 Y22.4421 
G01 X-19.4056 Y20.7379 
G01 X-19.4407 Y20.5613 
G01 X-19.5097 Y20.3949 
G01 X-19.6097 Y20.2451 
G01 X-19.7371 Y20.1177 
G01 X-19.8628 Y20.0338 
G01 X-19.8628 Y18.8014 
G01 X-19.7342 Y18.7359 
G01 X-19.5919 Y18.6325 
G01 X-19.4675 Y18.5081 
G01 X-19.3641 Y18.3657 
G01 X-19.2843 Y18.2090 
G01 X-19.2299 Y18.0417 
G01 X-19.2024 Y17.8680 
G01 X-19.2024 Y17.6920 
G01 X-19.2299 Y17.5183 
G01 X-19.2843 Y17.3510 
G01 X-19.3641 Y17.1943 
G01 X-19.4675 Y17.0519 
G01 X-19.5919 Y16.9275 
G01 X-19.7342 Y16.8241 
G01 X-19.8628 Y16.7586 
G01 X-19.8628 Y2.9972 
G01 X-18.7956 Y2.9972 
G01 X-18.2114 Y3.5814 
G01 X-17.3486 Y3.5814 
G01 X-16.7644 Y2.9972 
G01 X-13.7668 Y2.9972 
G01 X-13.7668 Y9.3726 
G01 X-14.3432 Y9.3726 
G01 X-14.3992 Y9.3958 
G01 X-14.4421 Y9.4387 
G01 X-14.4653 Y9.4947 
G01 X-14.4653 Y13.3653 
G01 X-14.4421 Y13.4213 
G01 X-14.3992 Y13.4642 
G01 X-14.3432 Y13.4874 
G01 X-12.2760 Y13.4874 
G01 X-12.2200 Y13.4642 
G01 X-12.1771 Y13.4213 
G01 X-12.1539 Y13.3653 
G01 X-12.1539 Y9.4947 
G01 X-12.1771 Y9.4387 
G01 X-12.2200 Y9.3958 
G01 X-12.2760 Y9.3726 
G01 X-12.8524 Y9.3726 
G01 X-12.8524 Y2.9972 
G01 X-12.2660 Y2.9972 
G01 X-11.8088 Y3.4544 
G01 X-11.0512 Y3.4544 
G01 X-10.5156 Y2.9188 
G01 X-10.5156 Y2.1612 
G01 X-11.0512 Y1.6256 
G01 X-11.5428 Y1.6256 
G01 X-11.5428 Y1.4572 
G01 X-6.8072 Y1.4572 
G01 X-6.8072 Y1.7040 
G01 X-7.2644 Y2.1612 
G01 X-7.2644 Y2.9188 
G01 X-6.7288 Y3.4544 
G01 X-5.9712 Y3.4544 
G01 X-5.4356 Y2.9188 
G01 X-5.4356 Y2.1612 
G01 X-5.8928 Y1.7040 
G01 X-5.8928 Y1.4572 
G01 X-2.4572 Y1.4572 
G01 X-2.4572 Y2.1976 
G01 X-2.8303 Y2.1976 
G01 X-2.8863 Y2.2208 
G01 X-2.8956 Y2.2301 
G01 X-2.8956 Y2.1612 
G01 X-3.4312 Y1.6256 
G01 X-4.1888 Y1.6256 
G01 X-4.7244 Y2.1612 
G01 X-4.7244 Y2.9188 
G01 X-4.1888 Y3.4544 
G01 X-3.4312 Y3.4544 
G01 X-2.9524 Y2.9755 
G01 X-2.9524 Y3.6803 
G01 X-2.9292 Y3.7363 
G01 X-2.8863 Y3.7792 
G01 X-2.8303 Y3.8024 
G01 X-1.1697 Y3.8024 
G01 X-1.1137 Y3.7792 
G01 X-1.0708 Y3.7363 
G01 X-1.0476 Y3.6803 
G01 X-1.0476 Y2.3197 
G01 X-1.0708 Y2.2637 
G01 X-1.1137 Y2.2208 
G01 X-1.1697 Y2.1976 
G01 X-1.5428 Y2.1976 
G01 X-1.5428 Y0.9398 
G01 X-1.5740 Y0.8235 
G01 X-1.6341 Y0.7193 
G00 Z2.0000 
G00 X-1.1697 Y4.1976 
G01 Z0.0000 F254.00 
G01 X-2.8303 Y4.1976 F508.00 
G01 X-2.8863 Y4.2208 
G01 X-2.9292 Y4.2637 
G01 X-2.9524 Y4.3197 
G01 X-2.9524 Y4.5428 
G01 X-3.0540 Y4.5428 
G01 X-3.4312 Y4.1656 
G01 X-4.1888 Y4.1656 
G01 X-4.7244 Y4.7012 
G01 X-4.7244 Y5.4588 
G01 X-4.2672 Y5.9159 
G01 X-4.2672 Y8.4328 
G01 X-5.8547 Y8.4328 
G01 X-5.8547 Y8.3898 
G01 X-5.8779 Y8.3338 
G01 X-5.9208 Y8.2909 
G01 X-5.9768 Y8.2677 
G01 X-8.0440 Y8.2677 
G01 X-8.1000 Y8.2909 
G01 X-8.1429 Y8.3338 
G01 X-8.1661 Y8.3898 
G01 X-8.1661 Y9.9490 
G01 X-8.1429 Y10.0050 
G01 X-8.1000 Y10.0479 
G01 X-8.0440 Y10.0711 
G01 X-5.9768 Y10.0711 
G01 X-5.9208 Y10.0479 
G01 X-5.8779 Y10.0050 
G01 X-5.8547 Y9.9490 
G01 X-5.8547 Y9.3472 
G01 X-4.2672 Y9.3472 
G01 X-4.2672 Y11.7856 
G01 X-4.6621 Y11.7856 
G01 X-4.8387 Y11.8207 
G01 X-5.0051 Y11.8897 
G01 X-5.1549 Y11.9897 
G01 X-5.2823 Y12.1171 
G01 X-5.3823 Y12.2669 
G01 X-5.4513 Y12.4333 
G01 X-5.4864 Y12.6099 
G01 X-5.4864 Y12.7901 
G01 X-5.4513 Y12.9667 
G01 X-5.3823 Y13.1331 
G01 X-5.2823 Y13.2829 
G01 X-5.1549 Y13.4103 
G01 X-5.0051 Y13.5103 
G01 X-4.8387 Y13.5793 
G01 X-4.6621 Y13.6144 
G01 X-2.9579 Y13.6144 
G01 X-2.7813 Y13.5793 
G01 X-2.6149 Y13.5103 
G01 X-2.4651 Y13.4103 
G01 X-2.3377 Y13.2829 
G01 X-2.2377 Y13.1331 
G01 X-2.1687 Y12.9667 
G01 X-2.1336 Y12.7901 
G01 X-2.1336 Y12.6099 
G01 X-2.1687 Y12.4333 
G01 X-2.2377 Y12.2669 
G01 X-2.3377 Y12.1171 
G01 X-2.4651 Y11.9897 
G01 X-2.6149 Y11.8897 
G01 X-2.7813 Y11.8207 
G01 X-2.9579 Y11.7856 
G01 X-3.3528 Y11.7856 
G01 X-3.3528 Y9.3472 
G01 X-1.7272 Y9.3472 
G01 X-1.7272 Y21.2206 
G01 X-4.8907 Y21.8999 
G01 X-5.1153 Y21.6752 
G01 X-5.7886 Y21.6752 
G01 X-6.2648 Y22.1514 
G01 X-6.2648 Y22.3298 
G01 X-6.4409 Y22.4028 
G01 X-13.7806 Y22.4028 
G01 X-14.3256 Y21.8578 
G01 X-14.3256 Y20.7379 
G01 X-14.3607 Y20.5613 
G01 X-14.4297 Y20.3949 
G01 X-14.5297 Y20.2451 
G01 X-14.6571 Y20.1177 
G01 X-14.8069 Y20.0177 
G01 X-14.9733 Y19.9487 
G01 X-15.1499 Y19.9136 
G01 X-15.3301 Y19.9136 
G01 X-15.5067 Y19.9487 
G01 X-15.6731 Y20.0177 
G01 X-15.8229 Y20.1177 
G01 X-15.9503 Y20.2451 
G01 X-16.0503 Y20.3949 
G01 X-16.1193 Y20.5613 
G01 X-16.1544 Y20.7379 
G01 X-16.1544 Y22.4421 
G01 X-16.1193 Y22.6187 
G01 X-16.0503 Y22.7851 
G01 X-15.9503 Y22.9349 
G01 X-15.8229 Y23.0623 
G01 X-15.6731 Y23.1623 
G01 X-15.5067 Y23.2313 
G01 X-15.3301 Y23.2664 
G01 X-15.1499 Y23.2664 
G01 X-14.9733 Y23.2313 
G01 X-14.8069 Y23.1623 
G01 X-14.6571 Y23.0623 
G01 X-14.5357 Y22.9409 
G01 X-14.3359 Y23.1407 
G01 X-14.2507 Y23.2259 
G01 X-14.1465 Y23.2860 
G01 X-14.0302 Y23.3172 
G01 X-6.3800 Y23.3172 
G01 X-6.3500 Y23.3211 
G01 X-6.3200 Y23.3172 
G01 X-6.2898 Y23.3172 
G01 X-6.2606 Y23.3094 
G01 X-6.2306 Y23.3054 
G01 X-6.2027 Y23.2939 
G01 X-6.1735 Y23.2860 
G01 X-6.1473 Y23.2709 
G01 X-5.9148 Y23.1746 
G01 X-5.7886 Y23.3008 
G01 X-5.1153 Y23.3008 
G01 X-4.6392 Y22.8247 
G01 X-4.6392 Y22.7811 
G01 X-1.2215 Y22.0472 
G01 X-1.2098 Y22.0472 
G01 X-1.1627 Y22.0346 
G01 X-1.1152 Y22.0244 
G01 X-1.1048 Y22.0191 
G01 X-1.0935 Y22.0160 
G01 X-1.0513 Y21.9917 
G01 X-1.0080 Y21.9695 
G01 X-0.9994 Y21.9617 
G01 X-0.9893 Y21.9559 
G01 X-0.9548 Y21.9214 
G01 X-0.9187 Y21.8888 
G01 X-0.9124 Y21.8790 
G01 X-0.9041 Y21.8707 
G01 X-0.8798 Y21.8285 
G01 X-0.8534 Y21.7877 
G01 X-0.8498 Y21.7766 
G01 X-0.8440 Y21.7665 
G01 X-0.8314 Y21.7194 
G01 X-0.8164 Y21.6731 
G01 X-0.8158 Y21.6614 
G01 X-0.8128 Y21.6502 
G01 X-0.8128 Y21.6015 
G01 X-0.8104 Y21.5529 
G01 X-0.8128 Y21.5415 
G01 X-0.8128 Y8.8298 
G01 X-0.8440 Y8.7135 
G01 X-0.9041 Y8.6093 
G01 X-0.9893 Y8.5241 
G01 X-1.0935 Y8.4640 
G01 X-1.2098 Y8.4328 
G01 X-3.3528 Y8.4328 
G01 X-3.3528 Y5.9159 
G01 X-2.9524 Y5.5155 
G01 X-2.9524 Y5.6803 
G01 X-2.9292 Y5.7363 
G01 X-2.8863 Y5.7792 
G01 X-2.8303 Y5.8024 
G01 X-1.1697 Y5.8024 
G01 X-1.1137 Y5.7792 
G01 X-1.0708 Y5.7363 
G01 X-1.0476 Y5.6803 
G01 X-1.0476 Y4.3197 
G01 X-1.0708 Y4.2637 
G01 X-1.1137 Y4.2208 
G01 X-1.1697 Y4.1976 
G00 Z2.0000 
G00 X-5.4356 Y4.7012 
G01 Z0.0000 F254.00 
G01 X-5.9712 Y4.1656 F508.00 
G01 X-6.7288 Y4.1656 
G01 X-7.2644 Y4.7012 
G01 X-7.2644 Y5.3478 
G01 X-10.5259 Y8.6093 
G01 X-10.5860 Y8.7135 
G01 X-10.6172 Y8.8298 
G01 X-10.6172 Y14.7828 
G01 X-15.0506 Y14.7828 
G01 X-16.0528 Y13.7806 
G01 X-16.0528 Y6.2898 
G01 X-16.0840 Y6.1735 
G01 X-16.1441 Y6.0693 
G01 X-16.2293 Y5.9841 
G01 X-16.7386 Y5.4748 
G01 X-16.7386 Y4.6486 
G01 X-17.3486 Y4.0386 
G01 X-18.2114 Y4.0386 
G01 X-18.8214 Y4.6486 
G01 X-18.8214 Y5.5114 
G01 X-18.2114 Y6.1214 
G01 X-17.3852 Y6.1214 
G01 X-16.9672 Y6.5394 
G01 X-16.9672 Y14.0302 
G01 X-16.9360 Y14.1465 
G01 X-16.8758 Y14.2507 
G01 X-15.6059 Y15.5207 
G01 X-15.5207 Y15.6059 
G01 X-15.4165 Y15.6660 
G01 X-15.3002 Y15.6972 
G01 X-10.6172 Y15.6972 
G01 X-10.6172 Y16.7586 
G01 X-10.7457 Y16.8241 
G01 X-10.8881 Y16.9275 
G01 X-11.0125 Y17.0519 
G01 X-11.1159 Y17.1943 
G01 X-11.1957 Y17.3510 
G01 X-11.2501 Y17.5183 
G01 X-11.2776 Y17.6920 
G01 X-11.2776 Y17.8680 
G01 X-11.2501 Y18.0417 
G01 X-11.1957 Y18.2090 
G01 X-11.1159 Y18.3657 
G01 X-11.0125 Y18.5081 
G01 X-10.8881 Y18.6325 
G01 X-10.7457 Y18.7359 
G01 X-10.5890 Y18.8157 
G01 X-10.4217 Y18.8701 
G01 X-10.2480 Y18.8976 
G01 X-10.0720 Y18.8976 
G01 X-9.8983 Y18.8701 
G01 X-9.7611 Y18.8255 
G01 X-8.0608 Y20.5257 
G01 X-8.0608 Y21.0286 
G01 X-7.5847 Y21.5048 
G01 X-6.9113 Y21.5048 
G01 X-6.4352 Y21.0286 
G01 X-6.4352 Y20.3553 
G01 X-6.9113 Y19.8792 
G01 X-7.4142 Y19.8792 
G01 X-9.1145 Y18.1789 
G01 X-9.0699 Y18.0417 
G01 X-9.0424 Y17.8680 
G01 X-9.0424 Y17.6920 
G01 X-9.0699 Y17.5183 
G01 X-9.1243 Y17.3510 
G01 X-9.2041 Y17.1943 
G01 X-9.3075 Y17.0519 
G01 X-9.4319 Y16.9275 
G01 X-9.5742 Y16.8241 
G01 X-9.7028 Y16.7586 
G01 X-9.7028 Y9.0794 
G01 X-6.6178 Y5.9944 
G01 X-5.9712 Y5.9944 
G01 X-5.4356 Y5.4588 
G01 X-5.4356 Y4.7012 
G00 Z2.0000 
G00 X-7.9756 Y4.7012 
G01 Z0.0000 F254.00 
G01 X-8.5112 Y4.1656 F508.00 
G01 X-9.2688 Y4.1656 
G01 X-9.8044 Y4.7012 
G01 X-9.8044 Y5.4588 
G01 X-9.2688 Y5.9944 
G01 X-8.5112 Y5.9944 
G01 X-7.9756 Y5.4588 
G01 X-7.9756 Y4.7012 
G00 Z2.0000 
G00 X-8.5112 Y3.4544 
G01 Z0.0000 F254.00 
G01 X-7.9756 Y2.9188 F508.00 
G01 X-7.9756 Y2.1612 
G01 X-8.5112 Y1.6256 
G01 X-9.2688 Y1.6256 
G01 X-9.8044 Y2.1612 
G01 X-9.8044 Y2.9188 
G01 X-9.2688 Y3.4544 
G01 X-8.5112 Y3.4544 
G00 Z2.0000 
G00 X-10.5156 Y4.7012 
G01 Z0.0000 F254.00 
G01 X-11.0512 Y4.1656 F508.00 
G01 X-11.8088 Y4.1656 
G01 X-12.3444 Y4.7012 
G01 X-12.3444 Y5.4588 
G01 X-11.8088 Y5.9944 
G01 X-11.0512 Y5.9944 
G01 X-10.5156 Y5.4588 
G01 X-10.5156 Y4.7012 
G00 Z2.0000 
G00 X-8.1000 Y10.5769 
G01 Z0.0000 F254.00 
G01 X-8.1429 Y10.6198 F508.00 
G01 X-8.1661 Y10.6758 
G01 X-8.1661 Y12.2350 
G01 X-8.1429 Y12.2910 
G01 X-8.1000 Y12.3339 
G01 X-8.0440 Y12.3571 
G01 X-5.9768 Y12.3571 
G01 X-5.9208 Y12.3339 
G01 X-5.8779 Y12.2910 
G01 X-5.8547 Y12.2350 
G01 X-5.8547 Y10.6758 
G01 X-5.8779 Y10.6198 
G01 X-5.9208 Y10.5769 
G01 X-5.9768 Y10.5537 
G01 X-8.0440 Y10.5537 
G01 X-8.1000 Y10.5769 
G00 Z2.0000 
G00 X-8.1000 Y12.8629 
G01 Z0.0000 F254.00 
G01 X-8.1429 Y12.9058 F508.00 
G01 X-8.1661 Y12.9618 
G01 X-8.1661 Y14.5210 
G01 X-8.1429 Y14.5770 
G01 X-8.1000 Y14.6199 
G01 X-8.0440 Y14.6431 
G01 X-7.3353 Y14.6431 
G01 X-7.2390 Y15.2747 
G01 X-7.2390 Y15.3002 
G01 X-7.2300 Y15.3339 
G01 X-7.2247 Y15.3684 
G01 X-7.2144 Y15.3918 
G01 X-7.2078 Y15.4165 
G01 X-7.1904 Y15.4467 
G01 X-7.1764 Y15.4787 
G01 X-7.1604 Y15.4986 
G01 X-7.1476 Y15.5207 
G01 X-7.1229 Y15.5454 
G01 X-7.1011 Y15.5727 
G01 X-7.0806 Y15.5878 
G01 X-7.0625 Y15.6059 
G01 X-7.0323 Y15.6233 
G01 X-7.0041 Y15.6440 
G01 X-6.9804 Y15.6533 
G01 X-6.9583 Y15.6660 
G01 X-6.9245 Y15.6751 
G01 X-6.8920 Y15.6878 
G01 X-6.8666 Y15.6906 
G01 X-6.8420 Y15.6972 
G01 X-6.8071 Y15.6972 
G01 X-6.7724 Y15.7010 
G01 X-6.7471 Y15.6972 
G01 X-5.3662 Y15.6972 
G01 X-5.2823 Y15.8229 
G01 X-5.1549 Y15.9503 
G01 X-5.0051 Y16.0503 
G01 X-4.8387 Y16.1193 
G01 X-4.6621 Y16.1544 
G01 X-2.9579 Y16.1544 
G01 X-2.7813 Y16.1193 
G01 X-2.6149 Y16.0503 
G01 X-2.4651 Y15.9503 
G01 X-2.3377 Y15.8229 
G01 X-2.2377 Y15.6731 
G01 X-2.1687 Y15.5067 
G01 X-2.1336 Y15.3301 
G01 X-2.1336 Y15.1499 
G01 X-2.1687 Y14.9733 
G01 X-2.2377 Y14.8069 
G01 X-2.3377 Y14.6571 
G01 X-2.4651 Y14.5297 
G01 X-2.6149 Y14.4297 
G01 X-2.7813 Y14.3607 
G01 X-2.9579 Y14.3256 
G01 X-4.6621 Y14.3256 
G01 X-4.8387 Y14.3607 
G01 X-5.0051 Y14.4297 
G01 X-5.1549 Y14.5297 
G01 X-5.2823 Y14.6571 
G01 X-5.3662 Y14.7828 
G01 X-6.3891 Y14.7828 
G01 X-6.4104 Y14.6431 
G01 X-5.9768 Y14.6431 
G01 X-5.9208 Y14.6199 
G01 X-5.8779 Y14.5770 
G01 X-5.8547 Y14.5210 
G01 X-5.8547 Y12.9618 
G01 X-5.8779 Y12.9058 
G01 X-5.9208 Y12.8629 
G01 X-5.9768 Y12.8397 
G01 X-8.0440 Y12.8397 
G01 X-8.1000 Y12.8629 
G00 Z2.0000 
G00 X-7.0284 Y16.9857 
G01 Z0.0000 F254.00 
G01 X-7.1443 Y17.1016 F508.00 
G01 X-7.2407 Y17.2342 
G01 X-7.3151 Y17.3802 
G01 X-7.3658 Y17.5361 
G01 X-7.3914 Y17.6980 
G01 X-7.3914 Y17.8620 
G01 X-7.3658 Y18.0239 
G01 X-7.3151 Y18.1798 
G01 X-7.2407 Y18.3258 
G01 X-7.1443 Y18.4584 
G01 X-7.0284 Y18.5743 
G01 X-6.8958 Y18.6707 
G01 X-6.7498 Y18.7451 
G01 X-6.5939 Y18.7958 
G01 X-6.4320 Y18.8214 
G01 X-6.3015 Y18.8214 
G01 X-5.7462 Y19.8368 
G01 X-5.8158 Y19.9063 
G01 X-5.8158 Y20.5796 
G01 X-5.3396 Y21.0558 
G01 X-4.6663 Y21.0558 
G01 X-4.1902 Y20.5796 
G01 X-4.1902 Y19.9063 
G01 X-4.6663 Y19.4302 
G01 X-4.9264 Y19.4302 
G01 X-5.4999 Y18.3816 
G01 X-5.4593 Y18.3258 
G01 X-5.3849 Y18.1798 
G01 X-5.3342 Y18.0239 
G01 X-5.3086 Y17.8620 
G01 X-5.3086 Y17.6980 
G01 X-5.3342 Y17.5361 
G01 X-5.3849 Y17.3802 
G01 X-5.4593 Y17.2342 
G01 X-5.5557 Y17.1016 
G01 X-5.6716 Y16.9857 
G01 X-5.8042 Y16.8893 
G01 X-5.9502 Y16.8149 
G01 X-6.1061 Y16.7642 
G01 X-6.2680 Y16.7386 
G01 X-6.4320 Y16.7386 
G01 X-6.5939 Y16.7642 
G01 X-6.7498 Y16.8149 
G01 X-6.8958 Y16.8893 
G01 X-7.0284 Y16.9857 
G00 Z2.0000 
G00 X-10.6357 Y19.6416 
G01 Z0.0000 F254.00 
G01 X-10.7516 Y19.5257 F508.00 
G01 X-10.8842 Y19.4293 
G01 X-11.0302 Y19.3549 
G01 X-11.1861 Y19.3042 
G01 X-11.3480 Y19.2786 
G01 X-11.5120 Y19.2786 
G01 X-11.6739 Y19.3042 
G01 X-11.7684 Y19.3350 
G01 X-12.4193 Y18.6841 
G01 X-12.5235 Y18.6240 
G01 X-12.6398 Y18.5928 
G01 X-17.8402 Y18.5928 
G01 X-17.9565 Y18.6240 
G01 X-18.0607 Y18.6841 
G01 X-18.1458 Y18.7693 
G01 X-18.2060 Y18.8735 
G01 X-18.2372 Y18.9898 
G01 X-18.2372 Y20.0338 
G01 X-18.3629 Y20.1177 
G01 X-18.4903 Y20.2451 
G01 X-18.5903 Y20.3949 
G01 X-18.6593 Y20.5613 
G01 X-18.6944 Y20.7379 
G01 X-18.6944 Y22.4421 
G01 X-18.6593 Y22.6187 
G01 X-18.5903 Y22.7851 
G01 X-18.4903 Y22.9349 
G01 X-18.3629 Y23.0623 
G01 X-18.2131 Y23.1623 
G01 X-18.0467 Y23.2313 
G01 X-17.8701 Y23.2664 
G01 X-17.6899 Y23.2664 
G01 X-17.5133 Y23.2313 
G01 X-17.3469 Y23.1623 
G01 X-17.1971 Y23.0623 
G01 X-17.0697 Y22.9349 
G01 X-16.9697 Y22.7851 
G01 X-16.9007 Y22.6187 
G01 X-16.8656 Y22.4421 
G01 X-16.8656 Y20.7379 
G01 X-16.9007 Y20.5613 
G01 X-16.9697 Y20.3949 
G01 X-17.0697 Y20.2451 
G01 X-17.1971 Y20.1177 
G01 X-17.3228 Y20.0338 
G01 X-17.3228 Y19.5072 
G01 X-12.8894 Y19.5072 
G01 X-12.4150 Y19.9816 
G01 X-12.4458 Y20.0761 
G01 X-12.4714 Y20.2380 
G01 X-12.4714 Y20.4020 
G01 X-12.4458 Y20.5639 
G01 X-12.3951 Y20.7198 
G01 X-12.3207 Y20.8658 
G01 X-12.2243 Y20.9984 
G01 X-12.1084 Y21.1143 
G01 X-11.9758 Y21.2107 
G01 X-11.8298 Y21.2851 
G01 X-11.6739 Y21.3358 
G01 X-11.5120 Y21.3614 
G01 X-11.3480 Y21.3614 
G01 X-11.1861 Y21.3358 
G01 X-11.0302 Y21.2851 
G01 X-10.8842 Y21.2107 
G01 X-10.7516 Y21.1143 
G01 X-10.6357 Y20.9984 
G01 X-10.5393 Y20.8658 
G01 X-10.4649 Y20.7198 
G01 X-10.4142 Y20.5639 
G01 X-10.3886 Y20.4020 
G01 X-10.3886 Y20.2380 
G01 X-10.4142 Y20.0761 
G01 X-10.4649 Y19.9202 
G01 X-10.5393 Y19.7742 
G01 X-10.6357 Y19.6416 
G00 Z2.0000 
G00 Z5.0000 
M05
M02
