(.../EAGLE-7.2.0/ulp/pcb-gcode.ulp)
(Copyright 2005 - 2012 by John Johnson)
(See readme.txt for licensing terms.)
(This file generated from the board:)
(.../eagle/hal9k_post/hal9kpost.brd)
(Current profile is .../pcb-gcode-3.6.2.4/profiles/emc.pp  )
(This file generated 20-11-2015 15:57:53)
(Settings from pcb-machine.h)
(spindle on time = 3.0000)
(spindle speed = 20000.0000)
(tool change at 0.0000 0.0000 5.0000 )
(feed rate xy = F0.00  )
(feed rate z  = F508.00 )
(Z Axis Settings)
(  High     Up        Down     Drill)
(5.0000 	2.0000 	0.0000 	-1.6000 )
(Settings from pcb-defaults.h)
(isolate min = 0.0254)
(isolate max = 0.5080)
(isolate step = 0.1270)
(Generated bottom outlines, bottom drill, )
(Unit of measure: mm)
( Tool|       Size       |  Min Sub |  Max Sub |   Count )
( T01 | 0.813mm 0.0320in | 0.0000in | 0.0000in |       0 )
( T02 | 1.000mm 0.0394in | 0.0000in | 0.0000in |       0 )
( T03 | 1.016mm 0.0400in | 0.0000in | 0.0000in |       0 )
(Metric Mode)
G21
(Absolute Coordinates)
G90
S20000
G00 Z5.0000 
G00 X0.0000 Y0.0000 
M03
G04 P3.000000
M05
M06 T01 (1.0000 )
G01 Z0.0000 F508.00 
M06 
G00 Z2.0000 
M03
G04 P3.000000
G82 X-5.0030 Y20.2430 Z-1.6000 F508.00 R2.0000 P0.500000
G82 X-5.4520 Y22.4880 
G82 X-7.2480 Y20.6920 
M05
G00 Z5.0000 
G00 X0.0000 Y0.0000 
G01 Z0.0000 F508.00 
M06 
G00 Z2.0000 
M03
G04 P3.000000
G82 X-6.3500 Y17.7800 Z-1.6000 F508.00 R2.0000 P0.500000
G82 X-10.1600 Y17.7800 
G82 X-11.4300 Y20.3200 
G82 X-20.3200 Y17.7800 
G82 X-17.7800 Y5.0800 
G82 X-17.7800 Y2.5400 
M05
G00 Z5.0000 
G00 X0.0000 Y0.0000 
G01 Z0.0000 F508.00 
M06 
G00 Z2.0000 
M03
G04 P3.000000
G82 X-3.8100 Y2.5400 Z-1.6000 F508.00 R2.0000 P0.500000
G82 X-6.3500 Y2.5400 
G82 X-6.3500 Y5.0800 
G82 X-3.8100 Y5.0800 
G82 X-8.8900 Y5.0800 
G82 X-11.4300 Y5.0800 
G82 X-11.4300 Y2.5400 
G82 X-8.8900 Y2.5400 
G82 X-3.8100 Y12.7000 
G82 X-3.8100 Y15.2400 
G82 X-15.2400 Y21.5900 
G82 X-17.7800 Y21.5900 
G82 X-20.3200 Y21.5900 
T01 
G00 Z5.0000 
M05
M02
